X: 3988
T: Blackthorn
R: waltz
M: 3/4
K: Eminor
E3 G Be|g3 f ed|e2 B3 A|B3 B AG|FA dF Ad|GB dG Bd|A^c eA ce|fe cB AF|
E3 G Be|g3 f ed|e2 B3 A|B3 B AG|FA dc BA|EA cB AG|FG AG FD|1 E2 B,2 ^C2:|2 E2 F3 E||
DF Ad BA|BA G2 FG|DF A2 A2|DG B4|DF Ad BA|BA GF ED|CD EF Bc|^d4 ef|
gf e3 B|cB A3 g|fe d3 A|BA G4|FA dc BA|EG cB AG|FG AG FD:|E6||

